symbols/web/vrpano/materialsymbolssharp/vrpano_wght500fill1_40px.svg

<svg xmlns="http://www.w3.org/2000/svg" height="40" width="40"><path d="M9.333 25.708q2.459-.333 5.125-.52Q17.125 25 20 25q2.833 0 5.521.188 2.687.187 5.146.52l-7.125-8.916-5 6.333L15 18.667Zm-6.25 8.834V5.458q2.5 1.125 6.979 2.271Q14.542 8.875 20 8.875t9.938-1.146q4.479-1.146 7.02-2.271v29.084q-2.541-1.167-7.02-2.292-4.48-1.125-9.938-1.125t-9.938 1.125q-4.479 1.125-6.979 2.292Z"/></svg>

<svg xmlns="http://www.w3.org/2000/svg" height="40" width="40"><path d="M9.333 25.708Q11.792 25.375 14.458 25.188Q17.125 25 20 25Q22.833 25 25.521 25.188Q28.208 25.375 30.667 25.708L23.542 16.792L18.542 23.125L15 18.667ZM3.083 34.542V5.458Q5.583 6.583 10.062 7.729Q14.542 8.875 20 8.875Q25.458 8.875 29.938 7.729Q34.417 6.583 36.958 5.458V34.542Q34.417 33.375 29.938 32.25Q25.458 31.125 20 31.125Q14.542 31.125 10.062 32.25Q5.583 33.375 3.083 34.542Z"/></svg>
